X:1
T:Title
%%score { ( 1 4 5 ) | ( 2 3 ) }
L:1/8
M:6/8
K:Ab
V:1 treble nm="Grand Piano"
V:4 treble 
V:5 treble 
V:2 bass 
V:3 bass 
V:1
 z3 z2[Q:1/4=90] [CE] | [CE][EA]B cdc | B3- B2 E | EBc ded | c3- c2 c | edc [Ec][EB][EA] | %6
 FFF [FA]GF | EAA GAB |[M:5/8] [CA]-[CA]- [CA]3 |[M:1/8] [CE] |[M:3/4] E4 z2 | A6 | G4 z2 | A6 | %14
 c4 z2 | FF F[FA] [EG]F | z C .C2 FG |[M:5/8] A2- [DA-] [CA]2 |] %18
V:2
 z3 z2 [A,,A,] | [A,,A,][C,A,][E,G,E] [A,E][G,B,E][A,E] | [E,G,E]3- [E,G,E]2 [E,G,] | %3
 [E,G,][E,G,E][E,A,E] [E,B,E][E,CE][E,B,E] | [A,E]3- [A,E]2 [A,E] | %5
 [A,CE][A,B,E][A,E] [A,,A,][B,,G,][C,A,] | [D,A,D][D,A,D][D,A,D] z E[D,A,D] | %7
 [E,A,C][E,CE][E,CE] [E,B,D][E,A,C][E,G,D] |[M:5/8] [A,,A,]-[A,,A,]- [A,,A,]3 |[M:1/8] [A,,A,] | %10
[M:3/4] [A,,A,][A,,A,] [A,,A,] [A,,A,]2 [A,,A,] | [A,,E,]2 [A,,F,] [A,,E,]2 [A,,E,] | %12
 [E,D]E, E, E,2 [E,G,D] | [A,,A,]2 [A,,F,] [A,,E,]2 [A,,A,] | %14
 [A,,A,][A,,A,] [A,,A,][A,,A,] [B,,G,][C,A,] | [D,A,D][D,A,D] [D,A,D][D,A,] [D,A,][D,A,D] | %16
 [E,A,C][E,A,] [E,A,] [E,G,]2 [E,D] |[M:5/8] [A,,E,]2 [A,,F,] [A,,E,]2 |] %18
V:3
 x6 | x6 | x6 | x6 | x6 | x6 | z3 .[D,D]3 | x6 |[M:5/8] x5 |[M:1/8] x |[M:3/4] x6 | x6 | x6 | x6 | %14
 x6 | x6 | x6 |[M:5/8] x5 |] %18
V:4
 x6 | x6 | x6 | x6 | x6 | x6 | x6 | x6 |[M:5/8] x5 |[M:1/8] x |[M:3/4] CC .C2 F[CG] | %11
 C2 D C2 [CA] | z D .D2 AB | C2 D C2 [CE] | EE .E2 B[EA] | x6 | E4 z2 |[M:5/8] C2 z z2 |] %18
V:5
 x6 | x6 | x6 | x6 | x6 | x6 | x6 | x6 |[M:5/8] x5 |[M:1/8] x |[M:3/4] z2 z .C3 | x6 | z2 z .D3 | %13
 x6 | z2 z .E3 | x6 | z2 z .D3 |[M:5/8] x5 |] %18

